X: 29486
T: Nightingale, The
R: jig
M: 6/8
K: Adorian
|:G|EAA A2B|cAd cAG|EDE GFG|G,B,D GFG|
EAA A2B|cAB cde|~g3 e/f/ge|dBG A2:|
|:a|aea aef|gdg gdg|aea aef|gfe de|
[1 g|aea aef|gdg gdg|~g3 e/f/ge|dBG A2:|
[2 f|g2e fed|edB GBd|~g3 e/f/ge|dBG A2||

